packages/sources/assets/src/assets/flag-af.svg

<svg width="28" height="20" viewBox="0 0 28 20" fill="none" xmlns="http://www.w3.org/2000/svg">
<rect width="28" height="20" rx="2" fill="white"/>
<mask id="mask0_503_2533" style="mask-type:alpha" maskUnits="userSpaceOnUse" x="0" y="0" width="28" height="20">
<rect width="28" height="20" rx="2" fill="white"/>
</mask>
<g mask="url(#mask0_503_2533)">
<rect x="13.3333" width="14.6667" height="20" fill="#1AB11F"/>
<path fill-rule="evenodd" clip-rule="evenodd" d="M0 20H9.33333V0H0V20Z" fill="#262626"/>
<path fill-rule="evenodd" clip-rule="evenodd" d="M9.33334 20H18.6667V0H9.33334V20Z" fill="#DC0D18"/>
<path opacity="0.75" d="M12 9.33333C12 8.96514 11.7015 8.66666 11.3333 8.66666C10.9652 8.66666 10.6667 8.96514 10.6667 9.33333H12ZM12.329 12.2181C12.6475 12.4029 13.0555 12.2945 13.2402 11.9761C13.425 11.6576 13.3167 11.2496 12.9982 11.0648L12.329 12.2181ZM15.0757 11.0198C14.7655 11.2182 14.6749 11.6305 14.8732 11.9407C15.0716 12.2508 15.4839 12.3415 15.7941 12.1431L15.0757 11.0198ZM17.3333 9.33333C17.3333 8.96514 17.0349 8.66666 16.6667 8.66666C16.2985 8.66666 16 8.96514 16 9.33333H17.3333ZM10.6667 9.33333C10.6667 10.5664 11.3366 11.6422 12.329 12.2181L12.9982 11.0648C12.3999 10.7177 12 10.0718 12 9.33333H10.6667ZM15.7941 12.1431C16.7183 11.552 17.3333 10.5147 17.3333 9.33333H16C16 10.041 15.6329 10.6634 15.0757 11.0198L15.7941 12.1431Z" fill="white"/>
<path fill-rule="evenodd" clip-rule="evenodd" d="M14 10.6667C14.7364 10.6667 15.3333 9.77124 15.3333 8.66667C15.3333 7.5621 14.7364 6.66667 14 6.66667C13.2636 6.66667 12.6667 7.5621 12.6667 8.66667C12.6667 9.77124 13.2636 10.6667 14 10.6667Z" fill="white" fill-opacity="0.5"/>
</g>
</svg>

<svg width="28" height="20" fill="none" xmlns="http://www.w3.org/2000/svg"><rect width="28" height="20" rx="2" fill="#fff"/><mask id="a" style="mask-type:alpha" maskUnits="userSpaceOnUse" x="0" y="0" width="28" height="20"><rect width="28" height="20" rx="2" fill="#fff"/></mask><g mask="url(#a)"><path fill="#1AB11F" d="M13.333 0H28v20H13.333z"/><path fill-rule="evenodd" clip-rule="evenodd" d="M0 20h9.333V0H0v20Z" fill="#262626"/><path fill-rule="evenodd" clip-rule="evenodd" d="M9.333 20h9.334V0H9.333v20Z" fill="#DC0D18"/><path opacity=".75" d="M12 9.333a.667.667 0 0 0-1.333 0H12Zm.329 2.885a.667.667 0 1 0 .67-1.153l-.67 1.153Zm2.747-1.198a.667.667 0 0 0 .718 1.123l-.718-1.123Zm2.257-1.687a.667.667 0 1 0-1.333 0h1.333Zm-6.666 0c0 1.233.67 2.31 1.662 2.885l.67-1.153A1.999 1.999 0 0 1 12 9.333h-1.333Zm5.127 2.81a3.331 3.331 0 0 0 1.54-2.81H16a2 2 0 0 1-.924 1.687l.718 1.123Z" fill="#fff"/><path fill-rule="evenodd" clip-rule="evenodd" d="M14 10.667c.736 0 1.333-.896 1.333-2 0-1.105-.597-2-1.333-2s-1.333.895-1.333 2c0 1.104.597 2 1.333 2Z" fill="#fff" fill-opacity=".5"/></g></svg>
